; generated by PrusaSlicer 2.8.1+MacOS-arm64 on 2024-12-17 at 22:44:46 UTC


;
;
; 

; external perimeters extrusion width = 0.45mm
; perimeters extrusion width = 0.45mm
; infill extrusion width = 0.45mm
; solid infill extrusion width = 0.45mm
; top infill extrusion width = 0.40mm
; support material extrusion width = 0.35mm
; first layer extrusion width = 0.42mm

; external perimeters extrusion width = 0.45mm
; perimeters extrusion width = 0.45mm
; infill extrusion width = 0.45mm
; solid infill extrusion width = 0.45mm
; top infill extrusion width = 0.40mm
; support material extrusion width = 0.35mm
; first layer extrusion width = 0.42mm

M73 P0 R45
M73 Q0 S45
M201 X1000 Y1000 Z200 E5000 ; sets maximum accelerations, mm/sec^2
M203 X200 Y200 Z12 E120 ; sets maximum feedrates, mm / sec
M204 S1250 T1250 ; sets acceleration (S) and retract acceleration (R), mm/sec^2
M205 X8.00 Y8.00 Z0.40 E4.50 ; sets the jerk limits, mm/sec
M205 S0 T0 ; sets the minimum extruding and travel feed rate, mm/sec

; printing object yubibrick.stl id:0 copy 0
; stop printing object yubibrick.stl id:0 copy 0
; printing object yubibrick.stl id:1 copy 0
; stop printing object yubibrick.stl id:1 copy 0

;TYPE:Custom
M862.3 P "MK3S" ; printer model check
M862.1 P0.4 ; nozzle diameter check
M115 U3.14.1 ; tell printer latest fw version
G90 ; use absolute coordinates
M83 ; extruder relative mode
M104 S215 ; set extruder temp
M140 S60 ; set bed temp
M190 S60 ; wait for bed temp
M109 S215 ; wait for extruder temp
G28 W ; home all without mesh bed level
G80 X98.2737 Y70.8134 W55.0226 H63.5636 ; mesh bed levelling

G1 Z0.2 F720
G1 Y-3 F1000 ; go outside print area
G92 E0
G1 X60 E9 F1000 ; intro line
G1 X100 E12.5 F1000 ; intro line

G92 E0
M221 S95

; Don't change E values below. Excessive value can damage the printer.

M907 E538 ; set extruder motor current
G21 ; set units to millimeters
G90 ; use absolute coordinates
M83 ; use relative distances for extrusion

M900 K0.05 ; Filament gcode LA 1.5
M900 K30 ; Filament gcode LA 1.0




M107
;LAYER_CHANGE
;Z:0.2
;HEIGHT:0.2
G1 E-.8 F2100
G1 Z.6 F720
G1 X102.387 Y72.306 F10800
G1 Z.2 F720
G1 E.8 F2100
M204 S800
;TYPE:Skirt/Brim
;WIDTH:0.42
G1 F1200
G1 X103.245 Y71.319 E.04101
G1 X104.567 Y71.001 E.04263
G1 X119.204 Y72.178 E.46041
G1 X121.13 Y72.386 E.06074
G1 X145.473 Y75.833 E.77087
G1 X147.059 Y76.902 E.05997
G1 X151.919 Y85.276 E.30358
G1 X152.494 Y86.454 E.0411
G1 X153.006 Y88.309 E.06034
G1 X153.108 Y89.448 E.03586
G1 X153.006 Y90.979 E.04811
G1 X147.335 Y132.298 E1.30767
G1 X146.778 Y133.481 E.041
G1 X145.166 Y134.189 E.0552
G1 X109.685 Y134.145 E1.11248
G1 X108.651 Y133.965 E.03291
G1 X107.55 Y133.61 E.03627
G1 X106.763 Y133.238 E.02729
G1 X105.868 Y132.672 E.0332
G1 X105.189 Y132.115 E.02754
G1 X104.399 Y131.274 E.03618
G1 X103.792 Y130.413 E.03303
G1 X103.265 Y129.383 E.03628
G1 X102.969 Y128.555 E.02757
G1 X102.73 Y127.474 E.03471
G1 X98.548 Y98.16 E.92843
G1 X98.462 Y96.448 E.05375
G1 X98.471 Y82.772 E.4288
G1 X98.738 Y80.869 E.06025
G1 X98.887 Y80.345 E.01708
G1 X99.498 Y78.909 E.04893
G1 X102.363 Y72.36 E.22413
M204 S1000
;WIPE_START
G1 F8640
G1 X102.387 Y72.306 E-.01364
G1 X103.245 Y71.319 E-.30197
G1 X104.567 Y71.001 E-.31396
G1 X105.303 Y71.06 E-.17043
;WIPE_END
G1 Z.6 F720
; printing object yubibrick.stl id:0 copy 0
G1 X114.835 Y115.018 F10800
G1 Z.2 F720
G1 E.8 F2100
M204 S800
;TYPE:Support material
G1 F1200
G1 X115.002 Y115.268 E.00943
G1 X115.148 Y116 E.0234
G1 X114.949 Y116.995 E.03182
G1 X115.112 Y117.299 E.01082
G1 X116.221 Y117.754 E.03758
G1 X116.62 Y117.54 E.0142
G1 X116.918 Y116.047 E.04774
G1 X116.816 Y115.439 E.01933
G1 X117.57 Y115.891 E.02756
G1 X117.856 Y117.451 E.04973
G1 X118.601 Y118.57 E.04215
G1 X119.682 Y119.312 E.04111
G1 X119.762 Y120.006 E.0219
G1 X119.684 Y120.687 E.02149
G1 X118.601 Y121.43 E.04118
G1 X117.856 Y122.549 E.04215
G1 X117.572 Y124.119 E.05003
G1 X116.813 Y124.574 E.02775
G1 X116.918 Y123.953 E.01975
G1 X116.62 Y122.46 E.04774
G1 X116.221 Y122.246 E.0142
G1 X115.112 Y122.701 E.03758
G1 X114.949 Y123.005 E.01082
G1 X115.148 Y124 E.03182
G1 X115.002 Y124.732 E.0234
G1 X114.826 Y124.995 E.00992
G1 X114.582 Y125.015 E.00768
G1 X113.449 Y124.845 E.03592
G1 X112.383 Y124.423 E.03595
G1 X111.388 Y123.698 E.0386
G1 X111.474 Y123.268 E.01375
G1 X111.888 Y122.65 E.02332
G1 X112.727 Y122.087 E.03168
G1 X112.827 Y121.76 E.01072
G1 X112.372 Y120.651 E.03758
G1 X111.937 Y120.519 E.01425
G1 X110.668 Y121.363 E.04779
G1 X110.131 Y122.136 E.02951
G1 X109.824 Y120.842 E.0417
G1 X109.764 Y119.703 E.03576
G1 X110.133 Y117.866 E.05875
G1 X110.668 Y118.637 E.02942
G1 X111.937 Y119.481 E.04779
G1 X112.372 Y119.349 E.01425
G1 X112.827 Y118.24 E.03758
G1 X112.727 Y117.913 E.01072
G1 X111.888 Y117.35 E.03168
G1 X111.474 Y116.732 E.02332
G1 X111.388 Y116.302 E.01375
G1 X112.383 Y115.589 E.03838
G1 X113.449 Y115.166 E.03596
G1 X114.778 Y115.015 E.04194
M204 S1000
;WIPE_START
G1 F8640
G1 X113.449 Y115.166 E-.30884
G1 X112.383 Y115.589 E-.26481
G1 X111.586 Y116.16 E-.22635
;WIPE_END
G1 Z.6 F720
G1 X119.134 Y120.849 F10800
G1 Z.2 F720
G1 E.8 F2100
M204 S800
G1 F1200
G1 X119.134 Y119.355 E.04684
G1 X118.715 Y119.076 E.01578
G1 X118.715 Y120.924 E.05794
G1 X118.296 Y121.275 E.01714
G1 X118.296 Y118.725 E.07995
G1 X117.877 Y118.095 E.02372
G1 X117.877 Y121.905 E.11946
G1 X117.555 Y122.389 E.01823
G1 X117.458 Y122.716 E.01069
G1 X117.458 Y117.284 E.17032
G1 X117.238 Y116.178 E.03536
G1 X117.039 Y117.173 E.03182
G1 X117.039 Y122.827 E.17728
G1 X116.922 Y122.237 E.01886
G1 X116.62 Y122.075 E.01075
G1 X116.62 Y117.925 E.13012
G1 X116.201 Y118.113 E.0144
G1 X116.201 Y121.887 E.11833
G1 X115.783 Y122.059 E.01417
G1 X115.783 Y117.941 E.12912
G1 X115.364 Y117.769 E.0142
G1 X115.364 Y122.231 E.1399
G1 X114.945 Y122.403 E.0142
G1 X114.945 Y117.597 E.15069
G1 X114.593 Y117.048 E.02045
G1 X114.802 Y116 E.03351
G1 X114.682 Y115.401 E.01915
G1 X114.526 Y115.348 E.00517
G1 X114.526 Y124.663 E.29207
G1 X114.107 Y124.6 E.01329
G1 X114.107 Y115.411 E.28811
G1 X113.688 Y115.474 E.01329
G1 X113.688 Y124.538 E.2842
G1 X113.269 Y124.409 E.01375
M73 P0 R44
G1 X113.269 Y115.603 E.27611
G1 X112.85 Y115.769 E.01413
G1 X112.85 Y117.586 E.05697
G1 X112.431 Y117.305 E.01582
G1 X112.431 Y115.969 E.04189
G1 X112.012 Y116.26 E.016
G1 X112.012 Y117.229 E.03038
M204 S1000
;WIPE_START
G1 F8640
G1 X112.012 Y116.26 E-.22374
G1 X112.431 Y115.969 E-.11779
G1 X112.431 Y117.305 E-.30849
G1 X112.85 Y117.586 E-.11649
G1 X112.85 Y117.441 E-.03349
;WIPE_END
G1 Z.6 F720
G1 X112.85 Y124.425 F10800
G1 Z.2 F720
G1 E.8 F2100
M204 S800
G1 F1200
G1 X112.85 Y122.414 E.06305
G1 X112.431 Y122.695 E.01582
G1 X112.431 Y124.043 E.04227
G1 X112.012 Y123.752 E.016
G1 X112.012 Y122.771 E.03076
M73 Q1 S45
M204 S1000
;WIPE_START
G1 F8640
G1 X112.012 Y123.752 E-.22652
G1 X112.431 Y124.043 E-.11779
G1 X112.431 Y122.695 E-.31126
G1 X112.85 Y122.414 E-.11649
M73 P1 R44
G1 X112.85 Y122.535 E-.02794
;WIPE_END
G1 Z.6 F720
G1 X112.85 Y121.369 F10800
G1 Z.2 F720
G1 E.8 F2100
M204 S800
G1 F1200
G1 X112.85 Y119.078 E.07183
G1 X112.624 Y119.626 E.01859
G1 X112.431 Y119.685 E.00633
G1 X112.431 Y120.315 E.01975
G1 X112.012 Y120.186 E.01375
G1 X112.012 Y119.814 E.01166
G1 X111.883 Y119.853 E.00423
G1 X111.593 Y119.66 E.01092
G1 X111.593 Y120.34 E.02132
G1 X111.174 Y120.619 E.01578
G1 X111.174 Y119.381 E.03882
G1 X110.755 Y119.102 E.01578
G1 X110.755 Y120.898 E.05631
G1 X110.336 Y121.216 E.01649
G1 X110.336 Y118.478 E.08585
M204 S1000
;WIPE_START
G1 F8640
G1 X110.336 Y121.216 E-.63221
G1 X110.755 Y120.898 E-.12146
G1 X110.755 Y120.697 E-.04633
;WIPE_END
G1 Z.6 F720
G1 X143.881 Y128.147 F10800
G1 Z.2 F720
G1 E.8 F2100
M204 S800
;TYPE:External perimeter
;WIDTH:0.419999
G1 F1200
G1 X143.692 Y128.642 E.01661
G1 X143.317 Y129.273 E.02301
G1 X142.955 Y129.697 E.01748
G1 X142.537 Y130.06 E.01736
G1 X141.898 Y130.445 E.02339
G1 X141.389 Y130.644 E.01714
G1 X140.849 Y130.767 E.01736
G1 X140.458 Y130.806 E.01232
G1 X111.451 Y130.81 E.90949
G1 X110.931 Y130.785 E.01632
G1 X110.403 Y130.707 E.01673
G1 X109.886 Y130.579 E.0167
G1 X109.145 Y130.294 E.02489
G1 X108.67 Y130.042 E.01686
G1 X108.231 Y129.75 E.01653
G1 X107.814 Y129.409 E.01689
G1 X107.456 Y129.053 E.01583
G1 X106.947 Y128.408 E.02576
G1 X106.669 Y127.948 E.01685
G1 X106.441 Y127.466 E.01672
G1 X106.26 Y126.965 E.0167
G1 X106.13 Y126.448 E.01671
G1 X106.051 Y125.921 E.01671
G1 X106.023 Y125.383 E.01689
G1 X106.023 Y114.617 E.33756
G1 X106.049 Y114.098 E.01629
G1 X106.126 Y113.57 E.01673
G1 X106.255 Y113.053 E.01671
G1 X106.375 Y112.715 E.01125
G1 X106.644 Y112.104 E.02093
G1 X107.084 Y111.397 E.02611
G1 X107.424 Y110.981 E.01685
G1 X107.781 Y110.623 E.01585
G1 X108.426 Y110.113 E.02578
G1 X108.886 Y109.836 E.01684
G1 X109.367 Y109.607 E.0167
G1 X109.869 Y109.427 E.01672
G1 X110.382 Y109.297 E.01659
G1 X110.913 Y109.217 E.01684
G1 X111.451 Y109.19 E.01689
G1 X140.286 Y109.19 E.9041
G1 X140.821 Y109.229 E.01682
G1 X141.362 Y109.348 E.01737
G1 X141.88 Y109.546 E.01739
G1 X142.23 Y109.733 E.01244
G1 X142.66 Y110.036 E.01649
G1 X143.188 Y110.562 E.02337
G1 X143.505 Y111.008 E.01716
G1 X143.692 Y111.358 E.01244
G1 X143.881 Y111.849 E.0165
G1 X144.005 Y112.389 E.01737
G1 X144.044 Y112.78 E.01232
G1 X144.044 Y127.22 E.45276
G1 X144.005 Y127.611 E.01232
G1 X143.897 Y128.089 E.01537
M204 S1000
;WIPE_START
G1 F8640
G1 X143.881 Y128.147 E-.01389
G1 X143.692 Y128.642 E-.12234
G1 X143.317 Y129.273 E-.16949
G1 X142.955 Y129.697 E-.12873
G1 X142.537 Y130.06 E-.12783
G1 X141.898 Y130.445 E-.17226
G1 X141.634 Y130.548 E-.06546
;WIPE_END
G1 Z.6 F720
G1 X140.912 Y131.176 F10800
G1 Z.2 F720
G1 E.8 F2100
M204 S800
;TYPE:Perimeter
;WIDTH:0.493562
G1 F1200
G1 X140.939 Y131.168 E.00106
;WIDTH:0.488293
G1 X141.232 Y131.082 E.01131
;WIDTH:0.454146
G1 X141.524 Y130.996 E.01041
;WIDTH:0.419999
G1 X142.091 Y130.769 E.01915
G1 X142.783 Y130.346 E.02543
G1 X143.24 Y129.943 E.0191
G1 X143.641 Y129.466 E.01954
G1 X144.044 Y128.777 E.02503
G1 X144.257 Y128.207 E.01908
;WIDTH:0.421492
G1 X144.376 Y127.695 E.01655
G1 X144.379 Y128.221 E.01656
;WIDTH:0.419999
G1 X144.379 Y131.213 E.09381
G1 X141.466 Y131.213 E.09133
;WIDTH:0.456781
G1 X141.189 Y131.195 E.00955
;WIDTH:0.493562
G1 X140.972 Y131.18 E.00815
M204 S1000
;WIPE_START
G1 F8640
G1 X140.912 Y131.176 E-.01388
G1 X140.939 Y131.168 E-.0065
G1 X141.232 Y131.082 E-.07051
G1 X141.524 Y130.996 E-.07029
G1 X142.091 Y130.769 E-.14102
G1 X142.783 Y130.346 E-.18727
G1 X143.24 Y129.943 E-.14069
G1 X143.641 Y129.466 E-.14389
G1 X143.698 Y129.369 E-.02595
;WIPE_END
G1 Z.6 F720
G1 X107.946 Y130.009 F10800
G1 Z.2 F720
G1 E.8 F2100
M204 S800
;WIDTH:0.434694
G1 F1200
G1 X108.019 Y130.067 E.00304
;WIDTH:0.429505
G1 X108.781 Y130.519 E.02848
;WIDTH:0.402702
G1 X109.4 Y130.771 E.01999
;WIDTH:0.413302
G1 X109.455 Y130.814 E.00215
;WIDTH:0.455304
G1 X109.509 Y130.857 E.00237
;WIDTH:0.497305
G1 X109.563 Y130.901 E.00263
;WIDTH:0.539307
G1 X109.618 Y130.944 E.00288
;WIDTH:0.581309
G1 X109.672 Y130.987 E.00309
;WIDTH:0.62331
G1 X109.727 Y131.031 E.0034
G1 X109.643 Y131.04 E.00408
;WIDTH:0.575396
G1 X109.558 Y131.05 E.00379
;WIDTH:0.527482
G1 X109.474 Y131.059 E.0034
;WIDTH:0.479568
G1 X109.39 Y131.069 E.00307
;WIDTH:0.431654
G1 X109.306 Y131.079 E.00273
;WIDTH:0.386232
G1 X108.819 Y130.916 E.01466
;WIDTH:0.418427
G1 X108.197 Y130.631 E.02136
;WIDTH:0.428371
G1 X107.729 Y130.331 E.01782
;WIDTH:0.437478
G1 X107.267 Y129.965 E.01934
;WIDTH:0.43975
G1 X106.902 Y129.607 E.01687
;WIDTH:0.440692
G1 X106.589 Y129.225 E.01633
G1 X106.293 Y128.778 E.01773
;WIDTH:0.417175
G1 X105.984 Y128.194 E.02056
;WIDTH:0.400716
G1 X105.757 Y127.561 E.02001
;WIDTH:0.410408
G1 X105.766 Y127.489 E.00222
;WIDTH:0.453869
G1 X105.774 Y127.416 E.00251
;WIDTH:0.49733
G1 X105.782 Y127.344 E.00274
;WIDTH:0.540791
G1 X105.791 Y127.272 E.003
;WIDTH:0.584252
G1 X105.799 Y127.199 E.00331
;WIDTH:0.627712
G1 X105.807 Y127.127 E.00352
G1 X105.854 Y127.187 E.00371
;WIDTH:0.58095
G1 X105.9 Y127.247 E.00338
;WIDTH:0.534188
G1 X105.947 Y127.308 E.00315
;WIDTH:0.487426
G1 X105.993 Y127.368 E.00279
;WIDTH:0.440664
G1 X106.039 Y127.428 E.0025
;WIDTH:0.393901
G1 X106.122 Y127.617 E.00602
;WIDTH:0.40249
G1 X106.353 Y128.137 E.01701
;WIDTH:0.41888
G1 X106.65 Y128.639 E.01823
;WIDTH:0.43975
G1 X107.182 Y129.326 E.02867
G1 X107.57 Y129.707 E.01794
;WIDTH:0.434694
G1 X107.9 Y129.971 E.01377
M204 S1000
;WIPE_START
G1 F8640
G1 X107.946 Y130.009 E-.01378
G1 X108.019 Y130.067 E-.02153
G1 X108.781 Y130.519 E-.20457
G1 X109.4 Y130.771 E-.15432
G1 X109.455 Y130.814 E-.01612
G1 X109.509 Y130.857 E-.01594
G1 X109.563 Y130.901 E-.01608
G1 X109.618 Y130.944 E-.01612
G1 X109.672 Y130.987 E-.01594
G1 X109.727 Y131.031 E-.01626
G1 X109.643 Y131.04 E-.01951
G1 X109.558 Y131.05 E-.01976
G1 X109.474 Y131.059 E-.01951
G1 X109.39 Y131.069 E-.01953
G1 X109.306 Y131.079 E-.01953
G1 X108.819 Y130.916 E-.11858
G1 X108.453 Y130.748 E-.09292
;WIPE_END
G1 Z.6 F720
G1 X109.749 Y108.958 F10800
G1 Z.2 F720
G1 E.8 F2100
M204 S800
;WIDTH:0.631866
G1 F1200
G1 X109.693 Y109.001 E.00346
;WIDTH:0.587734
G1 X109.636 Y109.045 E.00326
;WIDTH:0.543601
G1 X109.579 Y109.088 E.00297
;WIDTH:0.499468
G1 X109.523 Y109.132 E.0027
;WIDTH:0.455336
G1 X109.466 Y109.175 E.00245
;WIDTH:0.411203
G1 X109.409 Y109.219 E.00221
;WIDTH:0.374209
G1 X109.216 Y109.287 E.00564
;WIDTH:0.402374
G1 X108.697 Y109.52 E.017
;WIDTH:0.424795
G1 X108.192 Y109.814 E.01855
;WIDTH:0.439775
G1 X107.507 Y110.349 E.02868
G1 X107.126 Y110.736 E.01792
;WIDTH:0.436546
G1 X106.764 Y111.194 E.01911
;WIDTH:0.423395
G1 X106.312 Y111.947 E.02778
;WIDTH:0.400716
G1 X106.046 Y112.598 E.02092
;WIDTH:0.406163
G1 X106.004 Y112.654 E.00211
;WIDTH:0.449242
G1 X105.961 Y112.711 E.00241
;WIDTH:0.492321
G1 X105.919 Y112.767 E.00262
;WIDTH:0.5354
G1 X105.876 Y112.824 E.00292
;WIDTH:0.578479
G1 X105.834 Y112.88 E.00312
;WIDTH:0.621558
G1 X105.791 Y112.937 E.00344
G1 X105.783 Y112.865 E.00349
;WIDTH:0.578479
G1 X105.774 Y112.793 E.00323
;WIDTH:0.5354
G1 X105.766 Y112.721 E.00297
;WIDTH:0.492321
G1 X105.757 Y112.649 E.00271
;WIDTH:0.449242
G1 X105.749 Y112.577 E.00245
;WIDTH:0.406163
G1 X105.74 Y112.505 E.00219
;WIDTH:0.371677
G1 X105.787 Y112.337 E.00477
;WIDTH:0.400716
G1 X105.982 Y111.81 E.01672
;WIDTH:0.423394
G1 X106.203 Y111.369 E.01561
;WIDTH:0.426254
G1 X106.494 Y110.913 E.01724
;WIDTH:0.438406
G1 X106.871 Y110.428 E.0202
;WIDTH:0.439775
G1 X107.226 Y110.069 E.01666
;WIDTH:0.440801
G1 X107.612 Y109.753 E.0165
G1 X108.065 Y109.447 E.01809
;WIDTH:0.420909
G1 X108.601 Y109.17 E.01896
;WIDTH:0.398831
G1 X109.308 Y108.911 E.02228
;WIDTH:0.411203
G1 X109.381 Y108.919 E.00225
;WIDTH:0.455336
G1 X109.455 Y108.927 E.00255
;WIDTH:0.499468
G1 X109.528 Y108.934 E.00278
;WIDTH:0.543601
G1 X109.602 Y108.942 E.0031
;WIDTH:0.587734
G1 X109.676 Y108.95 E.00337
;WIDTH:0.631866
G1 X109.69 Y108.952 E.00069
M204 S1000
;WIPE_START
G1 F8640
G1 X109.749 Y108.958 E-.01369
G1 X109.693 Y109.001 E-.0163
G1 X109.636 Y109.045 E-.01663
G1 X109.579 Y109.088 E-.01649
G1 X109.523 Y109.132 E-.01644
G1 X109.466 Y109.175 E-.01649
G1 X109.409 Y109.219 E-.01663
G1 X109.216 Y109.287 E-.04725
G1 X108.697 Y109.52 E-.13136
G1 X108.192 Y109.814 E-.13493
G1 X107.507 Y110.349 E-.20069
G1 X107.126 Y110.736 E-.1254
G1 X106.998 Y110.898 E-.0477
;WIPE_END
G1 Z.6 F720
G1 X105.807 Y127.127 F10800
G1 Z.2 F720
G1 E.8 F2100
M204 S800
;WIDTH:0.627712
G1 F1200
G1 X105.753 Y126.841 E.01415
;WIDTH:0.590458
G1 X105.699 Y126.556 E.01321
;WIDTH:0.553204
G1 X105.674 Y126.268 E.01227
;WIDTH:0.515236
G1 X105.649 Y125.98 E.01135
;WIDTH:0.477268
G1 X105.634 Y125.411 E.02056
;WIDTH:0.446052
G1 X105.634 Y125.383 E.00094
;WIDTH:0.445334
G1 X105.637 Y114.617 E.36024
;WIDTH:0.46542
G1 X105.65 Y114.078 E.01894
;WIDTH:0.506086
G1 X105.67 Y113.792 E.01104
;WIDTH:0.546752
G1 X105.691 Y113.505 E.01206
;WIDTH:0.584155
G1 X105.741 Y113.221 E.01298
;WIDTH:0.621558
G1 X105.791 Y112.937 E.01387
M204 S1000
;WIPE_START
G1 F8640
G1 X105.795 Y116.402 E-.8
;WIPE_END
G1 Z.6 F720
G1 X140.912 Y131.176 F10800
G1 Z.2 F720
G1 E.8 F2100
M204 S800
;WIDTH:0.493562
G1 F1200
G1 X140.458 Y131.198 E.01703
;WIDTH:0.45005
