; generated by PrusaSlicer 2.8.1+MacOS-arm64 on 2024-12-17 at 20:01:55 UTC


;
;
; 

; external perimeters extrusion width = 0.45mm
; perimeters extrusion width = 0.45mm
; infill extrusion width = 0.45mm
; solid infill extrusion width = 0.45mm
; top infill extrusion width = 0.40mm
; support material extrusion width = 0.35mm
; first layer extrusion width = 0.42mm

; external perimeters extrusion width = 0.45mm
; perimeters extrusion width = 0.45mm
; infill extrusion width = 0.45mm
; solid infill extrusion width = 0.45mm
; top infill extrusion width = 0.40mm
; support material extrusion width = 0.35mm
; first layer extrusion width = 0.42mm

M73 P0 R57
M73 Q0 S57
M201 X1000 Y1000 Z200 E5000 ; sets maximum accelerations, mm/sec^2
M203 X200 Y200 Z12 E120 ; sets maximum feedrates, mm / sec
M204 S1250 T1250 ; sets acceleration (S) and retract acceleration (R), mm/sec^2
M205 X8.00 Y8.00 Z0.40 E4.50 ; sets the jerk limits, mm/sec
M205 S0 T0 ; sets the minimum extruding and travel feed rate, mm/sec

; printing object yubibrick.stl id:0 copy 0
; stop printing object yubibrick.stl id:0 copy 0
; printing object yubibrick.stl id:1 copy 0
; stop printing object yubibrick.stl id:1 copy 0

;TYPE:Custom
M862.3 P "MK3S" ; printer model check
M862.1 P0.4 ; nozzle diameter check
M115 U3.14.1 ; tell printer latest fw version
G90 ; use absolute coordinates
M83 ; extruder relative mode
M104 S215 ; set extruder temp
M140 S60 ; set bed temp
M190 S60 ; wait for bed temp
M109 S215 ; wait for extruder temp
G28 W ; home all without mesh bed level
G80 X98.8171 Y69.6229 W54.3078 H70.7542 ; mesh bed levelling

G1 Z0.2 F720
G1 Y-3 F1000 ; go outside print area
G92 E0
G1 X60 E9 F1000 ; intro line
G1 X100 E12.5 F1000 ; intro line

G92 E0
M221 S95

; Don't change E values below. Excessive value can damage the printer.

M907 E538 ; set extruder motor current
G21 ; set units to millimeters
G90 ; use absolute coordinates
M83 ; use relative distances for extrusion

M900 K0.05 ; Filament gcode LA 1.5
M900 K30 ; Filament gcode LA 1.0




M107
;LAYER_CHANGE
;Z:0.2
;HEIGHT:0.2
G1 E-.8 F2100
M73 P0 R56
G1 Z.6 F720
G1 X103.618 Y70.303 F10800
G1 Z.2 F720
G1 E.8 F2100
M204 S800
;TYPE:Skirt/Brim
;WIDTH:0.42
G1 F1200
G1 X105 Y69.811 E.046
G1 X145 Y69.811 E1.25417
G1 X146.248 Y70.202 E.04101
G1 X147.001 Y71.114 E.03708
G1 X152.352 Y83.202 E.41449
G1 X152.764 Y84.606 E.04588
G1 X152.937 Y86.131 E.04812
G1 X152.83 Y87.709 E.04959
G1 X147.175 Y138.243 E1.59435
G1 X146.648 Y139.44 E.04101
G1 X145 Y140.189 E.05676
G1 X105 Y140.189 E1.25417
G1 X103.752 Y139.798 E.04101
G1 X102.818 Y138.169 E.05888
G1 X99.006 Y88.838 E1.55135
G1 X99.052 Y85.007 E.12013
G1 X99.137 Y84.44 E.01798
G1 X102.897 Y71.394 E.4257
G1 X103.585 Y70.353 E.03912
M204 S1000
;WIPE_START
G1 F8640
G1 X103.618 Y70.303 E-.01383
G1 X105 Y69.811 E-.33873
G1 X106.938 Y69.811 E-.44744
;WIPE_END
G1 Z.6 F720
; printing object yubibrick.stl id:0 copy 0
G1 X115.962 Y115.682 F10800
G1 Z.2 F720
G1 E.8 F2100
M204 S800
;TYPE:Support material
G1 F1200
G1 X116.774 Y116.226 E.03065
G1 X117.318 Y117.038 E.03065
G1 X117.51 Y118 E.03076
G1 X117.318 Y118.962 E.03076
G1 X116.626 Y119.996 E.03901
G1 X116.659 Y120.338 E.01077
G1 X117.651 Y121.33 E.04399
G1 X118.104 Y121.285 E.01427
G1 X119.121 Y119.757 E.05755
G1 X119.329 Y118.956 E.02595
G1 X119.428 Y119.212 E.00861
G1 X120.629 Y119.66 E.04019
G1 X120.957 Y119.873 E.01226
G1 X121.797 Y121.136 E.04756
G1 X122.494 Y121.622 E.02664
G1 X122.745 Y122.153 E.01842
G1 X122.925 Y123.365 E.03842
G1 X122.806 Y124.17 E.02551
G1 X121.797 Y124.864 E.0384
G1 X120.879 Y126.243 E.05194
G1 X120.699 Y127.056 E.02611
G1 X120.526 Y127.178 E.00664
G1 X119.395 Y127.528 E.03712
G1 X119.121 Y126.243 E.0412
G1 X118.104 Y124.715 E.05755
G1 X117.651 Y124.67 E.01427
G1 X116.659 Y125.662 E.04399
G1 X116.626 Y126.004 E.01077
G1 X117.318 Y127.038 E.03901
G1 X117.51 Y128 E.03076
G1 X117.318 Y128.962 E.03076
G1 X116.774 Y129.774 E.03065
G1 X115.962 Y130.318 E.03065
G1 X115 Y130.51 E.03076
G1 X114.038 Y130.318 E.03076
G1 X113.226 Y129.774 E.03065
G1 X112.682 Y128.962 E.03065
G1 X112.49 Y128 E.03076
G1 X112.682 Y127.038 E.03076
G1 X113.374 Y126.004 E.03901
G1 X113.341 Y125.662 E.01077
G1 X112.349 Y124.67 E.04399
G1 X111.896 Y124.715 E.01427
G1 X110.879 Y126.243 E.05755
G1 X110.548 Y127.81 E.05022
G1 X109.589 Y127.725 E.03019
G1 X108.559 Y127.358 E.03428
G1 X107.48 Y126.598 E.04138
G1 X107.48 Y119.031 E.23726
G1 X107.786 Y118.624 E.01597
G1 X108.887 Y117.825 E.04265
G1 X109.961 Y117.45 E.03567
G1 X110.626 Y117.423 E.02087
G1 X110.52 Y118.047 E.01985
G1 X110.879 Y119.757 E.05478
G1 X111.896 Y121.285 E.05755
G1 X112.349 Y121.33 E.01427
G1 X113.341 Y120.338 E.04399
G1 X113.374 Y119.996 E.01077
G1 X112.682 Y118.962 E.03901
G1 X112.49 Y118 E.03076
G1 X112.682 Y117.038 E.03076
G1 X113.226 Y116.226 E.03065
G1 X114.038 Y115.682 E.03065
G1 X115 Y115.49 E.03076
G1 X115.907 Y115.671 E.029
M204 S1000
;WIPE_START
G1 F8640
G1 X115 Y115.49 E-.21356
G1 X114.038 Y115.682 E-.22651
G1 X113.226 Y116.226 E-.22568
G1 X112.902 Y116.709 E-.13425
;WIPE_END
G1 Z.6 F720
G1 X122.486 Y124.179 F10800
G1 Z.2 F720
G1 E.8 F2100
M204 S800
G1 F1200
G1 X122.486 Y122.711 E.04603
G1 X122.417 Y122.253 E.01452
G1 X122.228 Y121.852 E.0139
G1 X122.067 Y121.746 E.00604
G1 X122.067 Y124.254 E.07864
G1 X121.648 Y124.533 E.01578
G1 X121.648 Y121.467 E.09613
G1 X121.229 Y120.895 E.02223
G1 X121.229 Y125.105 E.132
G1 X120.81 Y125.734 E.0237
G1 X120.81 Y120.266 E.17145
G1 X120.713 Y120.12 E.0055
G1 X120.391 Y119.933 E.01168
G1 X120.391 Y126.858 E.21713
G1 X119.972 Y126.994 E.01381
G1 X119.972 Y119.777 E.22628
G1 X119.553 Y119.621 E.01402
G1 X119.553 Y126.584 E.21832
G1 X119.422 Y126.083 E.01624
G1 X119.134 Y125.651 E.01628
G1 X119.134 Y120.349 E.16624
G1 X118.715 Y120.979 E.02372
G1 X118.715 Y125.021 E.12673
G1 X118.296 Y124.393 E.02367
G1 X118.296 Y121.607 E.08735
G1 X117.877 Y121.649 E.0132
G1 X117.877 Y124.351 E.08472
G1 X117.525 Y124.316 E.01109
G1 X117.458 Y124.383 E.00297
G1 X117.458 Y121.617 E.08673
G1 X117.039 Y121.198 E.01858
G1 X117.039 Y124.802 E.113
G1 X116.62 Y125.221 E.01858
G1 X116.62 Y120.779 E.13928
G1 X116.333 Y120.492 E.01273
G1 X116.276 Y119.908 E.0184
G1 X116.62 Y119.394 E.01939
G1 X116.62 Y116.606 E.08742
G1 X116.201 Y116.251 E.01722
G1 X116.201 Y129.749 E.42322
G1 X115.783 Y130.008 E.01542
G1 X115.783 Y115.992 E.43946
G1 X115.364 Y115.908 E.0134
G1 X115.364 Y130.092 E.44473
G1 X114.945 Y130.153 E.01328
G1 X114.945 Y115.847 E.44855
G1 X114.526 Y115.93 E.01339
G1 X114.526 Y130.07 E.44335
G1 X114.107 Y129.956 E.01362
G1 X114.107 Y116.044 E.4362
G1 X113.688 Y116.325 E.01582
G1 X113.688 Y129.675 E.41858
G1 X113.471 Y129.529 E.0082
M73 Q0 S56
G1 X113.269 Y129.228 E.01137
G1 X113.269 Y126.772 E.07701
G1 X113.001 Y127.171 E.01507
G1 X112.85 Y127.93 E.02426
G1 X112.85 Y128.908 E.03066
M204 S1000
G1 X112.85 Y128.908 F10800
G1 X117.039 Y129.073
M204 S800
G1 F1200
G1 X117.039 Y127.375 E.05324
G1 X116.999 Y127.171 E.00652
G1 X116.62 Y126.606 E.02133
G1 X116.62 Y129.673 E.09616
M204 S1000
;WIPE_START
G1 F8640
G1 X116.62 Y126.606 E-.70818
G1 X116.841 Y126.936 E-.09182
;WIPE_END
G1 Z.6 F720
G1 X117.039 Y119.073 F10800
G1 Z.2 F720
G1 E.8 F2100
M204 S800
G1 F1200
G1 X117.039 Y116.927 E.06729
M204 S1000
G1 X117.039 Y116.927 F10800
G1 X113.269 Y125.35
M204 S800
G1 F1200
M73 Q1 S56
G1 X113.269 Y120.89 E.13984
G1 X112.85 Y121.309 E.01858
M73 P1 R56
G1 X112.85 Y124.691 E.10604
G1 X112.431 Y124.321 E.01753
G1 X112.431 Y121.679 E.08284
G1 X112.012 Y121.638 E.0132
G1 X112.012 Y124.362 E.08541
G1 X111.703 Y124.393 E.00974
G1 X111.593 Y124.558 E.00622
G1 X111.593 Y121.442 E.0977
G1 X111.174 Y120.812 E.02372
G1 X111.174 Y125.188 E.13721
G1 X110.755 Y125.818 E.02372
G1 X110.755 Y120.182 E.17671
G1 X110.517 Y119.769 E.01495
G1 X110.336 Y118.859 E.02909
G1 X110.336 Y127.141 E.25968
G1 X110.275 Y127.445 E.00972
G1 X109.917 Y127.413 E.01127
G1 X109.917 Y117.825 E.30063
G1 X109.498 Y117.971 E.01391
G1 X109.498 Y127.332 E.29351
G1 X109.079 Y127.183 E.01394
G1 X109.079 Y118.118 E.28423
G1 X108.66 Y118.376 E.01543
G1 X108.66 Y127.021 E.27106
G1 X108.241 Y126.76 E.01548
G1 X108.241 Y118.694 E.2529
G1 X107.822 Y119.141 E.01921
G1 X107.822 Y126.665 E.23591
M204 S1000
;WIPE_START
G1 F8640
G1 X107.822 Y123.2 E-.8
;WIPE_END
G1 Z.6 F720
G1 X113.269 Y119.533 F10800
G1 Z.2 F720
G1 E.8 F2100
M204 S800
G1 F1200
G1 X113.269 Y116.772 E.08657
G1 X113.001 Y117.171 E.01507
G1 X112.85 Y117.93 E.02426
G1 X112.85 Y118.908 E.03066
M204 S1000
;WIPE_START
G1 F8640
G1 X112.85 Y117.93 E-.22582
G1 X113.001 Y117.171 E-.17869
G1 X113.269 Y116.772 E-.11098
G1 X113.269 Y118.004 E-.28451
;WIPE_END
G1 Z.6 F720
G1 X143.698 Y136.601 F10800
G1 Z.2 F720
G1 E.8 F2100
M204 S800
;TYPE:Perimeter
;WIDTH:0.577958
G1 F1200
G1 X143.677 Y136.677 E.00351
G1 X143.525 Y136.718 E.007
;WIDTH:0.533433
G1 X143.373 Y136.759 E.00642
;WIDTH:0.488908
G1 X143.221 Y136.799 E.00583
;WIDTH:0.444382
G1 X106.779 Y136.799 E1.2165
;WIDTH:0.488907
G1 X106.627 Y136.759 E.00583
;WIDTH:0.533432
G1 X106.475 Y136.718 E.00642
;WIDTH:0.577957
G1 X106.323 Y136.677 E.007
G1 X106.282 Y136.525 E.007
;WIDTH:0.533432
G1 X106.241 Y136.373 E.00642
;WIDTH:0.488907
G1 X106.201 Y136.221 E.00583
;WIDTH:0.444381
G1 X106.201 Y109.779 E.88268
;WIDTH:0.488907
G1 X106.241 Y109.627 E.00583
;WIDTH:0.533432
G1 X106.282 Y109.475 E.00642
;WIDTH:0.577957
G1 X106.323 Y109.323 E.007
G1 X106.475 Y109.282 E.007
;WIDTH:0.533432
G1 X106.627 Y109.241 E.00642
;WIDTH:0.488907
G1 X106.779 Y109.201 E.00583
;WIDTH:0.444381
G1 X143.221 Y109.201 E1.21649
;WIDTH:0.488906
G1 X143.373 Y109.241 E.00583
;WIDTH:0.533432
G1 X143.525 Y109.282 E.00642
;WIDTH:0.577957
G1 X143.677 Y109.323 E.007
G1 X143.718 Y109.475 E.007
;WIDTH:0.533432
G1 X143.759 Y109.627 E.00642
;WIDTH:0.488907
G1 X143.799 Y109.779 E.00583
;WIDTH:0.444381
G1 X143.799 Y136.221 E.88268
;WIDTH:0.488907
G1 X143.759 Y136.373 E.00583
;WIDTH:0.533433
G1 X143.718 Y136.525 E.00642
;WIDTH:0.577958
G1 X143.713 Y136.543 E.00083
M204 S1000
G1 X143.713 Y136.543 F10800
G1 X143.322 Y136.368
M204 S800
;TYPE:External perimeter
;WIDTH:0.419999
G1 F1200
G1 X143.221 Y136.41 E.00343
G1 X106.779 Y136.41 E1.14261
G1 X106.645 Y136.355 E.00454
G1 X106.59 Y136.221 E.00454
G1 X106.59 Y109.779 E.82907
G1 X106.645 Y109.645 E.00454
G1 X106.779 Y109.59 E.00454
G1 X143.221 Y109.59 E1.14261
G1 X143.355 Y109.645 E.00454
G1 X143.41 Y109.779 E.00454
G1 X143.41 Y136.221 E.82907
G1 X143.364 Y136.332 E.00377
M204 S1000
;WIPE_START
G1 F8640
G1 X143.322 Y136.368 E-.01277
G1 X143.221 Y136.41 E-.02526
G1 X139.921 Y136.41 E-.76197
;WIPE_END
G1 Z.6 F720
G1 X144.134 Y137.134 F10800
G1 Z.2 F720
G1 E.8 F2100
M204 S800
;TYPE:Perimeter
;WIDTH:0.577958
G1 F1200
G1 X143.651 Y137.156 E.02151
;WIDTH:0.533433
G1 X143.436 Y137.178 E.00881
;WIDTH:0.488908
G1 X143.221 Y137.201 E.00802
;WIDTH:0.444382
G1 X106.779 Y137.201 E1.2165
;WIDTH:0.488907
G1 X106.474 Y137.178 E.01134
;WIDTH:0.533432
G1 X106.17 Y137.156 E.01243
;WIDTH:0.577957
G1 X105.866 Y137.134 E.01356
G1 X105.844 Y136.651 E.02151
;WIDTH:0.533432
G1 X105.822 Y136.436 E.00881
;WIDTH:0.488907
G1 X105.799 Y136.221 E.00802
;WIDTH:0.444381
G1 X105.799 Y109.779 E.88268
;WIDTH:0.488907
G1 X105.822 Y109.474 E.01134
;WIDTH:0.533432
G1 X105.844 Y109.17 E.01243
;WIDTH:0.577957
G1 X105.866 Y108.866 E.01356
G1 X106.349 Y108.844 E.02151
;WIDTH:0.533432
G1 X106.564 Y108.822 E.00881
;WIDTH:0.488907
G1 X106.779 Y108.799 E.00802
;WIDTH:0.444381
G1 X143.221 Y108.799 E1.21649
;WIDTH:0.488906
G1 X143.526 Y108.822 E.01134
;WIDTH:0.533432
G1 X143.83 Y108.844 E.01243
;WIDTH:0.577957
G1 X144.134 Y108.866 E.01356
G1 X144.134 Y109.134 E.01192
G1 X144.156 Y109.349 E.00961
;WIDTH:0.533432
G1 X144.178 Y109.564 E.00881
;WIDTH:0.488907
G1 X144.201 Y109.779 E.00802
;WIDTH:0.444381
G1 X144.201 Y136.221 E.88268
;WIDTH:0.450279
G1 X144.198 Y136.357 E.00461
;WIDTH:0.492839
G1 X144.177 Y136.616 E.00972
;WIDTH:0.535399
G1 X144.155 Y136.875 E.01064
;WIDTH:0.577958
G1 X144.139 Y137.074 E.00888
M204 S1000
G1 X144.139 Y137.074 F10800
G1 X144.59 Y137.59
M204 S800
;TYPE:External perimeter
;WIDTH:0.419999
G1 F1200
G1 X105.41 Y137.59 E1.22846
G1 X105.41 Y108.41 E.91492
G1 X144.59 Y108.41 E1.22846
G1 X144.59 Y109.134 E.0227
M73 P1 R55
G1 X144.59 Y137.53 E.89034
M204 S1000
;WIPE_START
G1 F8640
G1 X144.59 Y137.59 E-.01385
G1 X141.185 Y137.59 E-.78615
;WIPE_END
G1 Z.6 F720
G1 X133.735 Y131.047 F10800
G1 Z.2 F720
G1 E.8 F2100
M204 S800
;WIDTH:0.41873
G1 F1200
G1 X133.701 Y131.033 E.00115
;WIDTH:0.418841
G1 X132.693 Y130.359 E.0379
G1 X132.641 Y130.307 E.0023
G1 X131.967 Y129.298 E.03793
;WIDTH:0.41873
G1 X131.939 Y129.231 E.00227
G1 X131.7 Y128.037 E.03805
;WIDTH:0.418388
G1 X131.7 Y127.963 E.00231
;WIDTH:0.41873
G1 X131.939 Y126.769 E.03805
G1 X131.967 Y126.701 E.0023
;WIDTH:0.418839
G1 X132.641 Y125.693 E.0379
G1 X132.693 Y125.641 E.0023
G1 X133.702 Y124.967 E.03793
;WIDTH:0.418729
G1 X133.769 Y124.939 E.00227
G1 X134.963 Y124.7 E.03805
;WIDTH:0.418422
G1 X135.037 Y124.7 E.00231
;WIDTH:0.418862
G1 X136.231 Y124.939 E.03806
G1 X136.299 Y124.967 E.0023
G1 X137.307 Y125.641 E.0379
G1 X137.359 Y125.693 E.0023
M73 P2 R55
G1 X138.033 Y126.702 E.03793
;WIDTH:0.41873
G1 X138.061 Y126.769 E.00227
G1 X138.3 Y127.963 E.03805
;WIDTH:0.418386
G1 X138.3 Y128.037 E.00231
M73 Q2 S56
;WIDTH:0.418731
G1 X138.061 Y129.231 E.03805
G1 X138.033 Y129.299 E.0023
;WIDTH:0.418839
G1 X137.359 Y130.307 E.0379
G1 X137.307 Y130.359 E.0023
G1 X136.298 Y131.033 E.03793
;WIDTH:0.418731
G1 X136.231 Y131.061 E.00227
G1 X135.037 Y131.3 E.03805
;WIDTH:0.418387
G1 X134.963 Y131.3 E.00231
;WIDTH:0.41873
G1 X133.792 Y131.065 E.03732
M204 S1000
;WIPE_START
G1 F8640
G1 X133.735 Y131.047 E-.0138
G1 X133.701 Y131.033 E-.00849
G1 X132.693 Y130.359 E-.27999
G1 X132.641 Y130.307 E-.01698
G1 X131.967 Y129.298 E-.28018
G1 X131.939 Y129.231 E-.01677
G1 X131.783 Y128.45 E-.18379
;WIPE_END
G1 Z.6 F720
G1 X133.597 Y124.612 F10800
G1 Z.2 F720
G1 E.8 F2100
M204 S800
;WIDTH:0.418729
G1 F1200
G1 X133.695 Y124.571 E.00332
G1 X134.89 Y124.332 E.03808
;WIDTH:0.418421
G1 X135.11 Y124.332 E.00687
;WIDTH:0.41884
G1 X136.305 Y124.57 E.03809
G1 X136.507 Y124.655 E.00685
G1 X137.516 Y125.328 E.03791
G1 X137.672 Y125.484 E.0069
G1 X138.345 Y126.493 E.03791
;WIDTH:0.41873
G1 X138.429 Y126.695 E.00684
G1 X138.668 Y127.89 E.03808
;WIDTH:0.422048
G1 X138.681 Y128.037 E.00465
G1 X138.668 Y128.11 E.00234
;WIDTH:0.418731
G1 X138.429 Y129.305 E.03808
G1 X138.345 Y129.507 E.00684
;WIDTH:0.41884
G1 X137.672 Y130.516 E.03791
G1 X137.516 Y130.672 E.0069
G1 X136.507 Y131.345 E.03791
;WIDTH:0.418731
G1 X136.305 Y131.429 E.00684
G1 X135.11 Y131.668 E.03808
;WIDTH:0.418388
G1 X134.89 Y131.668 E.00687
;WIDTH:0.41873
G1 X133.695 Y131.429 E.03808
G1 X133.493 Y131.345 E.00684
;WIDTH:0.418839
G1 X132.484 Y130.672 E.03791
G1 X132.328 Y130.516 E.0069
G1 X131.655 Y129.507 E.03791
;WIDTH:0.41873
G1 X131.571 Y129.305 E.00684
G1 X131.332 Y128.11 E.03808
;WIDTH:0.418388
G1 X131.332 Y127.89 E.00687
;WIDTH:0.41873
G1 X131.571 Y126.695 E.03808
G1 X131.655 Y126.493 E.00684
;WIDTH:0.41884
G1 X132.328 Y125.484 E.03791
G1 X132.484 Y125.328 E.0069
G1 X133.493 Y124.655 E.03791
;WIDTH:0.418729
G1 X133.541 Y124.635 E.00162
M204 S1000
;WIPE_START
G1 F8640
G1 X133.597 Y124.612 E-.01398
G1 X133.695 Y124.571 E-.02453
G1 X134.89 Y124.332 E-.28139
G1 X135.11 Y124.332 E-.0508
G1 X136.305 Y124.57 E-.28135
G1 X136.507 Y124.655 E-.0506
G1 X136.858 Y124.889 E-.09735
;WIPE_END
G1 Z.6 F720
G1 X138.3 Y118 F10800
G1 Z.2 F720
G1 E.8 F2100
M204 S800
;WIDTH:0.418386
G1 F1200
G1 X138.3 Y118.037 E.00116
;WIDTH:0.418731
G1 X138.061 Y119.231 E.03805
G1 X138.033 Y119.299 E.0023
;WIDTH:0.41884
G1 X137.359 Y120.307 E.0379
G1 X137.307 Y120.359 E.0023
G1 X136.298 Y121.033 E.03793
;WIDTH:0.418731
G1 X136.231 Y121.061 E.00227
G1 X135.037 Y121.3 E.03805
;WIDTH:0.418387
G1 X134.963 Y121.3 E.00231
;WIDTH:0.418729
G1 X133.769 Y121.061 E.03805
G1 X133.701 Y121.033 E.0023
;WIDTH:0.41884
G1 X132.693 Y120.359 E.0379
G1 X132.641 Y120.307 E.0023
G1 X131.967 Y119.299 E.0379
;WIDTH:0.418731
G1 X131.939 Y119.231 E.0023
G1 X131.7 Y118.037 E.03805
;WIDTH:0.418388
G1 X131.7 Y117.963 E.00231
